!!!!SEGMENT: pl-wn--mus-iii-602--002_kosciuszko-tadeusz--polonaise.krn
!!!cenid: 17xx:2405
!!!COM: Kościuszko, Tadeusz
!!!COM-rismID: pe30014456
!!!CDT: 1746/02/04-1817/10/15
!!!CNT: Polish-Lithuanian
!!!OTL: Polonaise
!!!PDT:
!!!AGN:
!!!SMS-siglum: PL-Wn
!!!SMS-shelfmark: Mus.III.602
!!!SMS-shelfwork: 002 W
!!!SMS-variant:
!!!SMS-altvar:
!!!NIFC-rismSourceID: 990034150
!!!NIFC-rismChildID: 990034150
!!!NIFC-islandoraID: none
!!!URL-pdf-islandora:
!!!URL-scan: https://polona.pl/item/two-polonoises-a-waltz,MTE1OTEyNQ/0 @EN{Scan on Polona} @PL{Skany w portalu Polona}
!!!IIIF: https://polona.pl/iiif/item/MTE1OTEyNQ/manifest.json
!!!ONB-nifc: UWAGA: skan 2-3
!!!AIN: 2 piano
!!!key: B-
**kern	**kern
*part2	*part1
*staff2	*staff1
*I"Piano.	*I"Piano.
*I'Pf	*I'Pf
*Ipiano	*Ipiano
*ICklav	*ICklav
*IGsolo	*IGsolo
*clefF4	*clefG2
*k[b-e-]	*k[b-e-]
*B-:	*B-:
*M3/4	*M3/4
=1	=1
*xywh-[3]:283,528,2516,594	*xywh-[3]:283,528,2516,594
!LO:TX:t=P:problem:mixed beam	!LO:TX:a:B:t=Polonoiſe Koſeiuſsko
8B-\L	8bb-\L
16BB-/L	16b-\L
16D/JJ	16dd\JJ
8F\L	8ff\L
8F\	8ff\
8D\	8dd\
8BB-\J	8b-\J
=2	=2
8E-\L	8.gg\L
8C\J	.
.	16ee-\Jk
!LO:TX:t=P:problem:mixed beam	!
8F\L	(16cc\LL
.	16ee-\)
8FF/J	(16a\
.	16cc\JJ)
!LO:TX:t=P:problem:mixed beam	!
8BB-/L	4b-\
8B-\J	.
=3||	=3||
16BB-\LL	8b-\L 8dd
16F\	.
16D\	8b-\J 8dd
16F\JJ	.
16BB-\LL	4.b-\ 4.dd
16F\	.
16D\	.
16F\JJ	.
16BB-\LL	.
16F\	.
16D\	16cc\LL
16F\JJ	16b-\JJ
=4	=4
16AA\LL	8cc\L 8ee-
16F\	.
16C\	8cc\J 8ee-
16F\JJ	.
16AA\LL	4.cc\ 4.ee-
16F\	.
16C\	.
16F\JJ	.
16AA\LL	.
16F\	.
16C\	8b-\ 8dd
16F\JJ	.
*xywh-[3]:234,1135,2492,485	*xywh-[3]:234,1135,2492,485
!LO:LB:g=original	!LO:LB:g=original
=5	=5
16AA\LL	8a\L 8cc
16F\	.
16C\	8a\J 8cc
16F\JJ	.
16AA\LL	4.a\ 4.cc
16F\	.
16C\	.
16F\JJ	.
16AA\LL	.
16F\	.
16C\	16dd\LL
16F\JJ	16ee-\JJ
=6	=6
!LO:TX:t=P:problem:mixed beam	!
8D\L	8dd\L 8ff
8BB-\	8ee-\ 8gg
8E-\	8dd\ 8ff
8C\	8cc\ 8ee-
8F\	8b-\ 8dd
8FF/J	8a\J 8cc
=7	=7
8BB-\L 8D 8F	8.b-\L
8BB-\ 8D 8F	.
.	16dd\Jk
8BB-\ 8D 8F	(16ee-\LL
.	16dd\
8BB-\ 8D 8F	16cc\
.	16dd\JJ)
8BB-\ 8D 8F	(16ee-\LL
.	16dd\
8BB-\J 8D 8F	16cc\)
.	16dd\JJ
=8	=8
8AA/L 8C 8F	16ee-\LL
.	16dd\
8AA/ 8C 8F	16ee-\
.	16ff\JJ
8AA/ 8C 8F	16ee-\LL
.	16dd\
8AA/ 8C 8F	16ee-\
.	16ff\JJ
8AA/ 8C 8F	16ee-\LL
.	16dd\
8AA/J 8C 8F	16cc\
.	16b-\JJ
*xywh-[3]:253,1595,2473,521	*xywh-[3]:253,1595,2473,521
!LO:LB:g=original	!LO:LB:g=original
=9	=9
4FF/	8b-\L
.	8a\ 8cc
4F\	8a\ 8cc
.	8a\J 8cc
4FF/	(16cc\LL
.	16a\
.	16b-\
.	16cc\JJ)
=10	=10
8D\L	16b-/LL
.	16f/
8F\J	16dd/
.	16cc/JJ
.	8qqcc;/
*	*2\right
8B-\L	2b-;\
8F\J	.
4BB-;/	.
=11:|!|:	=11:|!|:
!LO:TX:t=P:problem:mixed beam	!
8FF/L	8a\L 8cc
8F\J	8a\J 8cc
!LO:TX:t=P:problem:mixed beam	!
8FF/L	4.a\ 4.cc
8F\J	.
!LO:TX:t=P:problem:mixed beam	!
8FF/L	.
8F\J	8b-\ 8dd
=12	=12
!LO:TX:t=P:problem:mixed beam	!
8FF/L	8dd\L 8ff
8F\J	8een\J
!LO:TX:t=P:problem:mixed beam	!
8FF/L	4.cc\ 4.ee-X
8F\J	.
!LO:TX:t=P:problem:mixed beam	!
8FF/L	.
8F\J	8b-\ 8dd
*xywh-[3]:259,2105,2570,460	*xywh-[3]:259,2105,2570,460
!LO:LB:g=original	!LO:LB:g=original
=13	=13
!LO:TX:t=P:problem:mixed beam	!
8BB-/L	8b-\L 8dd
8B-\J	8b-\J 8dd
!LO:TX:t=P:problem:mixed beam	!
8BB-/L	4.b-\ 4.dd
8B-\J	.
!LO:TX:t=P:problem:mixed beam	!
8BB-/L	.
8B-\J	8cc\ 8ee-
=14	=14
!LO:TX:t=P:problem:mixed beam	!
8BB-/L	8ee-\L 8gg
8B-\J	8dd\J 8ff
!LO:TX:t=P:problem:mixed beam	!
8BB-/L	4.dd\ 4.ff
8B-\J	.
8F\L	.
8D\J	8cc\ 8ee-
*xywh-[3]:350,2584,2425,503	*xywh-[3]:350,2584,2425,503
!LO:LB:g=original	!LO:LB:g=original
=15||	=15||
!	!LO:TX:a:B:t=Trio
!	!LO:TX:a:t=D.S.
8D/L	8dd\L 8ff
8BB-/J	8dd\J 8ff
8E-/L	8ee-\L 8gg
8C/J	8ee-\J 8gg
!LO:TX:t=P:problem:mixed beam	!
8F\L	8ee-\L
8FF/J	8cc\J
=16	=16
16BB-\LL	(8b-\L
16F\	.
16D\	8dd\J
16F\JJ	.
16BB-\LL	8cc\L
16F\	.
16D\	8dd\J)
16F\JJ	.
16BB-\LL	4b-\ 4dd
16F\	.
16D\	.
16F\JJ	.
=17	=17
8D/L	8dd\L 8ff
8BB-/J	8dd\J 8ff
8E-/L	8ee-\L 8gg
8C/J	8ee-\J 8gg
!LO:TX:t=P:problem:mixed beam	!
8F\L	8ee-\L
8FF/J	8cc\J
=18	=18
16BB-\LL	8b-\L
16F\	.
16D\	8dd\
16F\JJ	.
16BB-\LL	8cc\
16F\	.
16D\	8dd\J
16F\JJ	.
16BB-\LL	4b-\
16F\	.
16D\	.
16F\JJ	.
*xywh-[3]:283,3123,2546,503	*xywh-[3]:283,3123,2546,503
!LO:LB:g=original	!LO:LB:g=original
=19	=19
4FF/ 4F	8ff\L
.	16aa\L
.	16aa\JJ
4FF/ 4F	8aa\L
.	8aa\J
4FF/ 4F	16aa\LL
.	16ff\
.	16gg\
.	16aa\JJ
=20	=20
8BB-\L 8D 8F	8.bb-\L
8BB-\ 8D 8F	.
.	16aa\Jk
8BB-\ 8D 8F	16bb-\LL
.	16aa\
8BB-\ 8D 8F	16gg\
.	16ff\JJ
8BB-\ 8D 8F	16ee-\LL
.	16dd\
8BB-\J 8D 8F	16cc\
.	16b-\JJ
=21	=21
4FF/ 4F	8ff\L
.	16aa\L
.	16aa\JJ
4FF/ 4F	16aa\LL
.	16ff\
.	16gg\
.	16aa\JJ
8D/L	16bb-\LL
.	16aa\
8BB-/J	16gg\
.	16ff\JJ
=22	=22
8E-\L	16ff\LL
.	16ee-\
8F\J	16dd\
.	16cc\JJ
!	!LO:SIC:v:t=custos a
!	!LO:SIC:v:t=custos cc
.	8qqcc/
8B-\L	2b-\
8F\J	.
!LO:SIC:v:t=custos FF	!
4BB-/	.
*xywh-[4]:289,517,2455,486	*xywh-[4]:289,517,2455,486
!LO:PB:g=original	!LO:PB:g=original
=23:|!|:	=23:|!|:
!LO:TX:t=P:problem:mixed beam	!
8FF/L	(8a\L 8cc
8F\J	8cc\J) 8ee-
!LO:TX:t=P:problem:mixed beam	!
8FF/L	8cc\L 8ee-
8F\J	8a\J 8cc
!LO:TX:t=P:problem:mixed beam	!
8FF/L	8cc\L
8F\J	8a\J
=24	=24
16BB-\LL	8b-\L
16F\	.
16D\	8dd\
16F\JJ	.
16BB-\LL	8ff\
16F\	.
16D\	8bb-\J
16F\JJ	.
16BB-\LL	4ff\
16F\	.
16D\	.
16F\JJ	.
=25	=25
!LO:TX:t=P:problem:mixed beam	!
8FF/L	8a\L 8cc
8F\J	8cc\J 8ee-
!LO:TX:t=P:problem:mixed beam	!
8FF/L	8cc\L 8ee-
8F\J	8a\J 8cc
!LO:TX:t=P:problem:mixed beam	!
8FF/L	8cc\L
8F\J	8a\J
=26	=26
16BB-\LL	8b-\L
16F\	.
16D\	8dd\
16F\JJ	.
16BB-\LL	8ff\
16F\	.
16D\	8bb-\J
16F\JJ	.
16BB-\LL	4ff\
16F\	.
16D\	.
16F\JJ	.
*xywh-[4]:253,973,2492,474	*xywh-[4]:253,973,2492,474
!LO:LB:g=original	!LO:LB:g=original
=27	=27
8D/L	8dd\L 8ff
8BB-/J	8dd\J 8ff
8E-/L	8ee-\L 8gg
8C/J	8ee-\J 8gg
!LO:TX:t=P:problem:mixed beam	!
8F\L	8ee-\L
8FF/J	8cc\J
=28	=28
16BB-\LL	8b-\L
16F\	.
16D\	8dd\
16F\JJ	.
16BB-\LL	8cc\
16F\	.
16D\	8dd\J
16F\JJ	.
16BB-\LL	4b-\
16F\	.
16D\	.
16F\JJ	.
=29	=29
8D/L	8dd\L 8ff
8BB-/J	8dd\J 8ff
8E-/L	8ee-\L 8gg
8C/J	8ee-\J 8gg
!LO:TX:t=P:problem:mixed beam	!
8F\L	8ee-\L
8FF/J	8cc\J
=30	=30
16BB-\LL	8b-\L
16F\	.
16D\	8dd\
16F\JJ	.
16BB-\LL	8cc\
16F\	.
16D\	8dd\J
16F\JJ	.
16BB-\LL	4b-\
16F\	.
16D\	.
16F\JJ	.
*xywh-[4]:295,1417,2443,449	*xywh-[4]:295,1417,2443,449
!LO:LB:g=original	!LO:LB:g=original
=31	=31
4FF/ 4F	8ff\L
.	16aa\L
.	16aa\JJ
4FF/ 4F	8aa\L
.	8aa\J
4FF/ 4F	(16aa\LL
.	16ff\
.	16gg\
.	16aa\JJ)
=32	=32
8BB-/L 8D 8F	8.bb-\L
8BB-/ 8D 8F	.
.	16aa\Jk
8BB-/ 8D 8F	16bb-\LL
.	16aa\
8BB-/ 8D 8F	16gg\
.	16ff\JJ
8BB-/ 8D 8F	16ee-\LL
.	16dd\
8BB-/J 8D 8F	16cc\
.	16b-\JJ
=33	=33
4FF/ 4F	8ff\L
.	8aa\J
4FF/ 4F	(16aa\LL
.	16ff\
.	16gg\
.	16aa\JJ)
8D/L	(16bb-\LL
.	16aa\)
8BB-/J	(16gg\
.	16ff\JJ)
=34	=34
8E-\L	16ff\LL
.	16ee-\
8F\J	16dd\
.	16cc\JJ
.	4qqcc/
8B-\L	2b-;\
8F\J	.
4BB-;/	.
=:|!	=:|!
*-	*-
!!!system-decoration: [(s1,s2)]
!!!ENC: Mateusz Solarz
!!!END: 2022-05-26
!!!ENC: Julita Ruszuk
!!!END: 2022-07-04
!!!ENC-iiif: Konrad Tyszka
!!!END-iiif: 2022-08-24
!!!YEC: Copyright 2022 Narodowy Instytut Fryderyka Chopina (https://polishscores.org)
!!!YEM: License CC-BY-4.0 (https://creativecommons.org/licenses/by/4.0)
